Obsidian-SemiLight/actions/22s/node-type-cusp.svg

<svg viewBox="0 0 22 22" xmlns="http://www.w3.org/2000/svg"><path d="m1.0019531 3-.0019531.0019531v.9960938l.0019531.0019531h.9960938l.0019531-.0019531v.0058593c4.31303.75011 7.6245038 6.1628928 7.9648438 12.7890628l.9296872-.929688c-.62303-6.7633897-4.249621-12.163031-8.894531-12.863281h-.0019531zm8.9980469 0v3h1v1h1v-1h1v-3zm10 0c-.005 7.06463-3.393592 12.999241-7.888672 13.869141l.302734.302734-.414062.414063v.339843c5.11011-.77038 9.00033-7.222001 9-14.925781zm-9 1h1v1h-1zm0 4v1h1v-1zm0 2v1h1v-1zm7 6v1h-1v1h1v1h3v-3zm-3 1v1h1v-1zm4 0h1v1h-1zm-9.0097656.576172c.002.11193.0097656.221474.0097656.333984h.324219z" fill="#4d4d4d"/><path d="m11 14.34375-2.828125 2.828125 2.828125 2.828125 2.828125-2.828125zm0 1.414062 1.414062 1.414063-1.414062 1.414063-1.4140625-1.414063z" fill="#3daee9"/></svg>

<svg xmlns="http://www.w3.org/2000/svg" viewBox="0 0 22 22">
  <defs id="defs3051">
    <style type="text/css" id="current-color-scheme">
      .ColorScheme-Text {
        color:#4d4d4d;
      }
      .ColorScheme-Highlight {
        color:#3daee9;
      }
      </style>
  </defs>
 <path 
     style="fill:currentColor;fill-opacity:1;stroke:none" 
     d="M 1.0019531 3 L 1 3.0019531 L 1 3.9980469 L 1.0019531 4 L 1.9980469 4 L 2 3.9980469 L 2 4.0039062 C 6.31303 4.7540162 9.6245038 10.166799 9.9648438 16.792969 L 10.894531 15.863281 C 10.271501 9.0998913 6.64491 3.70025 2 3 L 1.9980469 3 L 1.0019531 3 z M 10 3 L 10 6 L 11 6 L 11 7 L 12 7 L 12 6 L 13 6 L 13 3 L 10 3 z M 20 3 C 19.995 10.06463 16.606408 15.999241 12.111328 16.869141 L 12.414062 17.171875 L 12 17.585938 L 12 17.925781 C 17.11011 17.155401 21.00033 10.70378 21 3 L 20 3 z M 11 4 L 12 4 L 12 5 L 11 5 L 11 4 z M 11 8 L 11 9 L 12 9 L 12 8 L 11 8 z M 11 10 L 11 11 L 12 11 L 12 10 L 11 10 z M 18 16 L 18 17 L 17 17 L 17 18 L 18 18 L 18 19 L 21 19 L 21 16 L 18 16 z M 15 17 L 15 18 L 16 18 L 16 17 L 15 17 z M 19 17 L 20 17 L 20 18 L 19 18 L 19 17 z M 9.9902344 17.576172 C 9.9922344 17.688102 10 17.797646 10 17.910156 L 10.324219 17.910156 L 9.9902344 17.576172 z "
     class="ColorScheme-Text"
     />
 <path 
     style="fill:currentColor;fill-opacity:1;stroke:none" 
     d="M 11 14.34375 L 8.171875 17.171875 L 11 20 L 13.828125 17.171875 L 11 14.34375 z M 11 15.757812 L 12.414062 17.171875 L 11 18.585938 L 9.5859375 17.171875 L 11 15.757812 z "
     class="ColorScheme-Highlight"
     />
</svg>
